src/lib/packages/icons/src/assets/filled/wifi-slash.svg

<svg width="24" height="24" viewBox="0 0 24 24" fill="none" xmlns="http://www.w3.org/2000/svg">
<path d="M21.53 3.52999L3.52997 21.53C3.38397 21.676 3.19194 21.75 2.99994 21.75C2.80794 21.75 2.61591 21.677 2.46991 21.53C2.17691 21.237 2.17691 20.762 2.46991 20.469L10.842 12.097C9.29498 12.314 7.83982 12.961 6.65082 13.989C6.46082 14.149 6.23092 14.229 6.00092 14.229C5.72092 14.229 5.44091 14.109 5.24091 13.879C4.88091 13.469 4.93102 12.829 5.35102 12.469C7.19102 10.879 9.55092 10.009 12.0009 10.009C12.1909 10.009 12.381 10.019 12.561 10.029C12.66 10.037 12.7549 10.061 12.8449 10.095L14.6569 8.28298C13.7969 8.09498 12.9109 7.99899 12.0009 7.99899C8.92092 7.99899 5.96084 9.12899 3.67084 11.189C3.48084 11.359 3.24092 11.439 3.00092 11.439C2.73092 11.439 2.45092 11.329 2.25092 11.109C1.89092 10.699 1.921 10.059 2.331 9.68899C5.001 7.30899 8.43092 5.99899 12.0009 5.99899C13.4609 5.99899 14.8909 6.209 16.2409 6.639C16.2559 6.643 16.265 6.655 16.279 6.66L20.4699 2.46899C20.7629 2.17599 21.238 2.17599 21.531 2.46899C21.823 2.76199 21.823 3.23799 21.53 3.52999ZM13.0768 14.116C12.5358 14.018 12.014 14.38 11.916 14.924C11.818 15.468 12.1801 15.987 12.7241 16.085C13.3361 16.195 13.913 16.447 14.392 16.814C14.574 16.953 14.788 17.021 14.999 17.021C15.3 17.021 15.5969 16.886 15.7929 16.63C16.1299 16.192 16.0469 15.564 15.6079 15.228C14.8779 14.666 14.0028 14.282 13.0768 14.116ZM16.486 11.051C15.989 10.81 15.3908 11.017 15.1498 11.513C14.9088 12.01 15.116 12.608 15.613 12.849C16.246 13.157 16.8289 13.539 17.3449 13.986C17.5339 14.15 17.767 14.23 17.999 14.23C18.279 14.23 18.558 14.113 18.756 13.884C19.116 13.466 19.071 12.835 18.653 12.474C18.006 11.913 17.276 11.434 16.486 11.051ZM21.663 9.691C20.996 9.101 20.2811 8.57399 19.5371 8.12399C19.0611 7.83699 18.448 7.99 18.164 8.462C17.878 8.935 18.0289 9.54898 18.5019 9.83498C19.1439 10.223 19.7609 10.678 20.3369 11.188C20.5269 11.356 20.7639 11.439 20.9999 11.439C21.2759 11.439 21.552 11.325 21.749 11.102C22.115 10.689 22.076 10.057 21.663 9.691ZM11.9999 17.75C11.3099 17.75 10.7499 18.31 10.7499 19C10.7499 19.69 11.3099 20.25 11.9999 20.25C12.6899 20.25 13.2499 19.69 13.2499 19C13.2499 18.31 12.6899 17.75 11.9999 17.75Z" fill="currentColor"/>
</svg>

<svg xmlns="http://www.w3.org/2000/svg" width="24" height="24" fill="none"><path fill="currentColor" d="m21.53 3.53-18 18a.748.748 0 0 1-1.06 0 .75.75 0 0 1 0-1.061l8.372-8.372a8.117 8.117 0 0 0-4.191 1.892c-.19.16-.42.24-.65.24a1 1 0 0 1-.65-1.76 10.16 10.16 0 0 1 6.65-2.46c.19 0 .38.01.56.02.099.008.194.032.284.066l1.812-1.812A12.406 12.406 0 0 0 12 7.999c-3.08 0-6.04 1.13-8.33 3.19-.19.17-.43.25-.67.25-.27 0-.55-.11-.75-.33a1.02 1.02 0 0 1 .08-1.42A14.51 14.51 0 0 1 12 5.999c1.46 0 2.89.21 4.24.64.015.004.024.016.038.021l4.19-4.191A.75.75 0 1 1 21.53 3.53Zm-8.453 10.586a1.001 1.001 0 0 0-.353 1.969 3.88 3.88 0 0 1 1.668.729.999.999 0 1 0 1.216-1.586 5.855 5.855 0 0 0-2.531-1.112Zm3.409-3.065a1 1 0 0 0-.873 1.798c.633.308 1.216.69 1.732 1.137a.998.998 0 1 0 1.308-1.512 9.9 9.9 0 0 0-2.167-1.423Zm5.177-1.36a14.709 14.709 0 0 0-2.126-1.567 1 1 0 1 0-1.035 1.711 12.64 12.64 0 0 1 1.835 1.353.998.998 0 0 0 1.412-.086 1 1 0 0 0-.086-1.411ZM12 17.75a1.25 1.25 0 1 0 0 2.5 1.25 1.25 0 0 0 0-2.5Z"/></svg>
